!!!OTL: Braut - Werbung (Hildesage) Bie vrie ischt auf der Gruvenshuhn!
!!!ARE: Europa, Suedosteuropa, Jugoslavija, Gottschee, Buehel
!!!YOR: 1, S. 27
!!    1906 aufgezeichnet
!!!SCT: Q0003
!!!YEM: Copyright 1995, estate of Helmut Schaffrath.
**kern
*ICvox
*Ivox
*M2/4
*k[f#]
*G:
{16g
16a
=1
8b
8b
8b
8a
=2
8b
8a
8g}
{8cc
=3
8b
8a
8g
8e
=4
8f#
8e
4d}
=5
{8g
8d
8g
8a
=6
4b
16b
16g
8cc
=7
4b
8r}
==
!!!AGN: Ballade, Braut - Werbung
!! Letzte Zeile = Refrain auf sinnfreie Silben.
!!!ONB: ESAC (Essen Associative Code) Database: BALLADE
!!!AMT: simple duple
!!!AIN: vox
!!!EED: Helmut Schaffrath
!!!EEV: 1.0
*-
